!!!Genre:	Skotshne
!!!Mode:	Altered Dorian
!!!Listening/dance:	listening
!!!:	*g:
!!!One_Mode:	no
**kern
*I"P1
*clefG2
*k[b-e-]
*>bM
*g:
*M2/4
*>A
=1
*^
(16gLL	2G
16a	.
16b-	.
16aJJ	.
16ccLL	.
16b-	.
16a	.
16gJJ)	.
=2	=2
(16gLL	2G
16d	.
16g	.
16dJJ	.
16ccLL	.
16b-	.
16a	.
16gJJ)	.
=3	=3
(16gLL	2G
16a	.
16b-	.
16aJJ	.
16ccLL	.
16b-	.
16a	.
16gJJ)	.
=4	=4
(16gLL	2G
16d	.
16b-	.
16aJJ	.
4g)	.
=5:|!|:	=5:|!|:
*>B
(8ddL	4G
8gJ)	.
(8b-TL	4G
16aL	.
16gJJ)	.
*v	*v
=6
*^
16gLL	4G
16d	.
16g	.
16dJJ	.
(8b-TL	4G
16aL	.
16gJJ)	.
=7	=7
(8ddL	4G
8gJ)	.
(8b-L	4G
16aL	.
16gJJ)	.
=8	=8
16gLL	4G
16d	.
16b-	.
16aJJ	.
4g	4G
*v	*v
=9:|!
*>C
*k[b-]
*>eM
*-
